X: 1581
T: the Son of Prosperity
R: hornpipe
B: O'Neill's 1850 #1581
O: F.O'Neill
Z: Michael D. Long, 9/28/98
Z: Michael Hogan
Z: Compacted via repeats and multiple endings [JC]
M: C|
L: 1/8
K: D
(AG) | FDFA dABG | (F<A)D2 D2(AG) |1,3 FDFA dABG | (E<G)C2 C2 :|2,4 FDAD (3(EFG) CE | F2D2 D2 :: (3(ABc) | dedc AGAB |
| cdcA d2 (3(ABc) | dedc AGEF | (E<G)C2 C2 (3(ABc) || dedc ABAG | FEFG ABAG | FDAD (3(EFG) CE | F2D2 D2 :|
